X: 20177
T: Jocelyn's Tree
R: jig
M: 6/8
K: Dmajor
G|FDB AGE|FAd f{a}fa|gbg ege|cec AGE|
EDB AGE|FAd f{a}fa|.b.g.e cec|AGE D2z:|
G|~F3 ~D3|FAd (3.g.fdA|(g2{a}g) efe|Bcd {g}ecA|
Beg bge|Adf afd|{A}FAd {a}gec|AGE D2z:|
B|~A3 ~f3|aba {b}afd|BGE ~A|ceg gec|
d (3.e.f.g a (3.e.f.g|aba afd|Bge cec|AGE {A}D2z:|

